X:1
T:Title
%%score 1 2 3 4
L:1/8
Q:1/4=170
M:4/4
K:Bb
V:1 treble nm="Church Organ, Soprano"
V:2 treble nm="French Horn, Alto"
V:3 bass nm="Trombone, Tenor"
V:4 bass nm="Tuba, Bass"
V:1
 F4 B4- | B2 B2 B4 | c4 d4- | d8 | c4 B4 | A4 G4- | G2 F2 F4- | F8 | F4 E4 | D4 G4 | A4 B4 | %11
w: By~Arthur~H.~Brown *|||||||||||
 c4 A4 | d4 B4 | c4 F4 | G2 A2 B4- | B8 |] %16
w: |||||
V:2
 C4 F4- | F2 D2 D4 | F4 F4- | F8 | F2 E2 D4 | F4 F4 | E4 D4- | D8 | F4[K:bass] B,4 | A,4 B,4 | %10
 C2 D2 B,4 | E4 C4 | F4 D4 | C4 C4 | E4 D4- | D8 |] %16
V:3
 A,4 B,4- | B,2 F,2 G,4 | A,4 B,4- | B,8 | A,4 B,4 | D2 C2 B,4- | B,2 C2 D4- | D8 | C2 D2 E4 | %9
w: All~ hosts,~|* a bove,~|be neath,~||Sing~ the~|In * carn|* ate~ Lord.~||With~ * in|
 A,4 G,4 | ^F,4 G,4 | G,4 A,4 | A,4 G,4 | G,4 A,4 | C4 B,4- | B,8 |] %16
w: stru ments~|and~ pi|ous~ breath~|At tune~|each~ mea|sured~ word.~||
V:4
 F,4 D,4- | D,2 B,,2 G,4 | F,4 B,4- | B,8 | F,4 G,4 | D,4 E,2 F,2 | G,2 A,2 B,4- | B,8 | A,4 G,4 | %9
 F,4 E,4 | D,4 G,4 | C,4 F,4 | D,4 G,4 | E,4 F,4 | F,4 B,,4- | B,,8 |] %16

